**kern	**silbe	**kern	**silbe	**harmony	**phrase	**leadinstrument	**rhyme	**timestamp	**harte
*ICvox	*	*ICvox	*	*M4/4	*	*	*	*	*M4/4
*VRlead	*	*VRharmonize	*	*	*	*	*	*	*
*Hstimme	*	*Nstimme	*	*	*	*	*	*	*
*B:	*	*B:	*	*B:	*	*	*	*	*B:
*M4/4	*	*M4/4	*	*	*	*	*	*	*
*clefC3	*	*clefC3	*	*	*	*	*	*	*
r;	.	r;	.	1r;	.	r	.	0	N.C.
=1	=1	=1	=1	=1	=1	=1	=1	=1	=1
*>Letter>A	*>Letter>A	*>Letter>A	*>Letter>A	*>Letter>A	*>Letter>A	*>Letter>A	*>Letter>A	*>Letter>A	*>Letter>A
*>Label>Intro	*>Label>Intro	*>Label>Intro	*>Label>Intro	*>Label>Intro	*>Label>Intro	*>Label>Intro	*>Label>Intro	*>Label>Intro	*>Label>Intro
1r	.	1r	.	1N	newline	r	.	0.255	N.C.
=2	=2	=2	=2	=2	=2	=2	=2	=2	=2
1r	.	1r	.	1N	.	r	.	2.702	N.C.
=3	=3	=3	=3	=3	=3	=3	=3	=3	=3
1r	.	1r	.	1N	.	r	.	5.148	N.C.
=4	=4	=4	=4	=4	=4	=4	=4	=4	=4
1r	.	1r	.	1N	.	r	.	7.594	N.C.
=5	=5	=5	=5	=5	=5	=5	=5	=5	=5
*>Letter>B2	*>Letter>B2	*>Letter>B2	*>Letter>B2	*>Letter>B2	*>Letter>B2	*>Letter>B2	*>Letter>B2	*>Letter>B2	*>Letter>B2
*>Label>Chorus	*>Label>Chorus	*>Label>Chorus	*>Label>Chorus	*>Label>Chorus	*>Label>Chorus	*>Label>Chorus	*>Label>Chorus	*>Label>Chorus	*>Label>Chorus
2f#	Ce-	2d#	Ce-	1N	newline	voice	.	10.041	N.C.
4d#	-lia	4B	-lia	.	.	.	.	.	.
8r	.	8r	.	.	.	.	.	.	.
8f#	you're	8d#	you're	.	.	.	.	.	.
=6	=6	=6	=6	=6	=6	=6	=6	=6	=6
8g#	brea-	8e	brea-	1N	.	voice	(A	12.393	N.C.
8f#	-king	8d#	-king	.	.	.	a)	.	.
8eq	_	8c#q	_	.	.	.	.	.	.
8e	my	8c#	my	.	.	.	.	.	.
[8f#	heart	[8d#	heart	.	.	.	.	.	.
8f#]	_	8d#]	_	.	.	.	.	.	.
4r	.	4r	.	.	.	.	.	.	.
8f#	You're	8d#	You're	.	.	.	.	.	.
=7	=7	=7	=7	=7	=7	=7	=7	=7	=7
8g#	sha-	8e	sha-	1N	.	voice	(A	14.745	N.C.
8f#	-king	8d#	-king	.	.	.	a)	.	.
8e	my	8c#	my	.	.	.	.	.	.
[8f#	con	[8d#	con	.	.	.	.	.	.
8f#]	_	8d#]	_	.	.	.	.	.	.
8e	fi-	8c#	fi-	.	.	.	.	.	.
8d#	-dence	8B	-dence	.	.	.	.	.	.
16eQ	_	16BQ	_	.	.	.	.	.	.
[8f#	dai	[8c#	dai	.	.	.	(A	.	.
=8	=8	=8	=8	=8	=8	=8	=8	=8	=8
8f#]	_	8c#]	_	1F#M	.	voice	.	17.097	F#:maj
16c#	ly	16A#	ly	.	.	.	a)	.	.
16B	_	16G#	_	.	.	.	.	.	.
[4A#	_	[4F#	_	.	.	.	.	.	.
8A#]	_	8F#]	_	.	.	.	.	.	.
8r	.	8r	.	.	.	.	.	.	.
8d#	Oh,	8B	Oh,	.	.	.	.	.	.
8f#	Ce-	8d#	Ce-	.	.	.	.	.	.
=9	=9	=9	=9	=9	=9	=9	=9	=9	=9
8f#	-ce	8d#	-ce	2EM	newline	voice	.	19.449	E:maj
4g#	_	4e	_	.	.	.	.	.	.
8f#	_	8d#	_	.	.	.	.	.	.
8.f#	lia	8.d#	lia	2BM	.	voice	.	20.624	B:maj
16r	.	16r	.	.	.	.	.	.	.
8r	.	8r	.	.	.	.	.	.	.
8d#	I'm	8B	I'm	.	.	.	.	.	.
=10	=10	=10	=10	=10	=10	=10	=10	=10	=10
8e	down	8c#	down	2EM	.	voice	.	21.799	E:maj
8d#	on	8B	on	.	.	.	.	.	.
8c#	my	8A#	my	.	.	.	.	.	.
[8d#	knees	[8B	knees	.	.	.	B	.	.
4d#]	_	4B]	_	2BM	.	voice	.	22.974	B:maj
8r	.	8r	.	.	.	.	.	.	.
8d#	I'm	8B	I'm	.	.	.	.	.	.
=11	=11	=11	=11	=11	=11	=11	=11	=11	=11
8e	beg-	8c#	beg-	2EM	.	voice	.	24.149	E:maj
8d#	-ging	8B	-ging	.	.	.	.	.	.
8c#	you,	8A#	you,	.	.	.	.	.	.
[8d#	please,	[8B	please,	.	.	.	B	.	.
8d#]	_	8B]	_	2BM	.	voice	.	25.324	B:maj
8c#	to	8A#	to	.	.	.	.	.	.
8B	come	8G#	come	.	.	.	.	.	.
[8A#	home	[8F#	home	.	.	.	.	.	.
=12	=12	=12	=12	=12	=12	=12	=12	=12	=12
4A#]	_	4F#]	_	1F#M	.	voice	.	26.498	F#:maj
4r	.	4r	.	.	.	.	.	.	.
8r	.	2r	.	.	.	.	.	.	.
16c#	Come	.	.	.	.	.	.	.	.
[16A#	on!	.	.	.	.	.	.	.	.
4A#]	_	.	.	.	.	.	.	.	.
=13	=13	=13	=13	=13	=13	=13	=13	=13	=13
*>Letter>B	*>Letter>B	*>Letter>B	*>Letter>B	*>Letter>B	*>Letter>B	*>Letter>B	*>Letter>B	*>Letter>B	*>Letter>B
*>Label>Chorus	*>Label>Chorus	*>Label>Chorus	*>Label>Chorus	*>Label>Chorus	*>Label>Chorus	*>Label>Chorus	*>Label>Chorus	*>Label>Chorus	*>Label>Chorus
2f#	Ce-	2d#	Ce-	1BM	newline	voice	.	28.848	B:maj
4d#	-lia	4B	-lia	.	.	.	.	.	.
8r	.	8r	.	.	.	.	.	.	.
8f#	you're	8d#	you're	.	.	.	.	.	.
=14	=14	=14	=14	=14	=14	=14	=14	=14	=14
8g#	brea-	8e	brea-	2EM	.	voice	(A	31.209	E:maj
8f#	-king	8d#	-king	.	.	.	a)	.	.
8eq	_	8c#q	_	.	.	.	.	.	.
8e	my	8c#	my	.	.	.	.	.	.
[8f#	heart	[8d#	heart	.	.	.	.	.	.
8f#]	_	8d#]	_	2BM	.	voice	.	32.39	B:maj
4r	.	4r	.	.	.	.	.	.	.
8f#	You're	8d#	You're	.	.	.	.	.	.
=15	=15	=15	=15	=15	=15	=15	=15	=15	=15
8g#	sha-	8e	sha-	2EM	.	voice	(A	33.57	E:maj
8f#	-king	8d#	-king	.	.	.	a)	.	.
8e	my	8c#	my	.	.	.	.	.	.
8eq	_	8c#q	_	.	.	.	.	.	.
[8f#	con	[8d#	con	.	.	.	.	.	.
8f#]	_	8d#]	_	2BM	.	voice	.	34.751	B:maj
8e	fi-	8c#	fi-	.	.	.	.	.	.
8d#	-dence	8B	-dence	.	.	.	.	.	.
16eQ	_	16BQ	_	.	.	.	.	.	.
[8f#	dai	[8c#	dai	.	.	.	(A	.	.
=16	=16	=16	=16	=16	=16	=16	=16	=16	=16
8f#]	_	8c#]	_	1F#M	.	voice	.	35.931	F#:maj
16c#	ly	16A#	ly	.	.	.	a)	.	.
16B	_	16G#	_	.	.	.	.	.	.
[4A#	_	[4F#	_	.	.	.	.	.	.
8A#]	_	8F#]	_	.	.	.	.	.	.
8r	.	8r	.	.	.	.	.	.	.
8d#	Oh,	8B	Oh,	.	.	.	.	.	.
8f#	Ce-	8d#	Ce-	.	.	.	.	.	.
=17	=17	=17	=17	=17	=17	=17	=17	=17	=17
8f#	-ce	8d#	-ce	2EM	newline	voice	.	38.292	E:maj
4g#	_	4e	_	.	.	.	.	.	.
8f#	_	8d#	_	.	.	.	.	.	.
8.f#	lia	8.d#	lia	2BM	.	voice	.	39.453	B:maj
16r	.	16r	.	.	.	.	.	.	.
8r	.	8r	.	.	.	.	.	.	.
8d#	I'm	8B	I'm	.	.	.	.	.	.
=18	=18	=18	=18	=18	=18	=18	=18	=18	=18
8e	down	8c#	down	2EM	.	voice	.	40.614	E:maj
8d#	on	8B	on	.	.	.	.	.	.
8c#	my	8A#	my	.	.	.	.	.	.
[8d#	knees	[8B	knees	.	.	.	B	.	.
4d#]	_	4B]	_	2BM	.	voice	.	41.774	B:maj
8r	.	8r	.	.	.	.	.	.	.
8d#	I'm	8B	I'm	.	.	.	.	.	.
=19	=19	=19	=19	=19	=19	=19	=19	=19	=19
8e	beg-	8c#	beg-	2EM	.	voice	.	42.935	E:maj
8d#	-ging	8B	-ging	.	.	.	.	.	.
8c#	you,	8A#	you,	.	.	.	.	.	.
8c#q	_	8A#q	_	.	.	.	.	.	.
[8d#	please,	[8B	please,	.	.	.	B	.	.
8d#]	_	8B]	_	2BM	.	voice	.	44.096	B:maj
8c#	to	8A#	to	.	.	.	.	.	.
8B	come	8G#	come	.	.	.	.	.	.
[8A#	home	[8F#	home	.	.	.	.	.	.
=20	=20	=20	=20	=20	=20	=20	=20	=20	=20
4A#]	_	4F#]	_	1F#M	.	voice	.	45.257	F#:maj
4r	.	4r	.	.	.	.	.	.	.
8r	.	2r	.	.	.	.	.	.	.
8F#	Come	.	.	.	.	.	.	.	.
8G#	on	.	.	.	.	.	.	.	.
[8B	home	.	.	.	.	.	.	.	.
=21	=21	=21	=21	=21	=21	=21	=21	=21	=21
4.B]	_	1r	.	1BM	.	voice	.	47.578	B:maj
8r	.	.	.	.	.	.	.	.	.
2r	.	.	.	.	.	.	.	.	.
=22	=22	=22	=22	=22	=22	=22	=22	=22	=22
*>Letter>C	*>Letter>C	*>Letter>C	*>Letter>C	*>Letter>C	*>Letter>C	*>Letter>C	*>Letter>C	*>Letter>C	*>Letter>C
*>Label>Verse	*>Label>Verse	*>Label>Verse	*>Label>Verse	*>Label>Verse	*>Label>Verse	*>Label>Verse	*>Label>Verse	*>Label>Verse	*>Label>Verse
8r	.	1r	.	1BM	newline	voice	.	49.9	B:maj
8B	Ma-	.	.	.	.	.	.	.	.
8c#	-king	.	.	.	.	.	.	.	.
[8d#	love	.	.	.	.	.	.	.	.
8d#]	_	.	.	.	.	.	.	.	.
8B	in	.	.	.	.	.	.	.	.
8B	the	.	.	.	.	.	.	.	.
[8e	af	.	.	.	.	.	.	.	.
=23	=23	=23	=23	=23	=23	=23	=23	=23	=23
8e]	_	1r	.	1BM	.	voice	.	52.21	B:maj
4d#	ter-	.	.	.	.	.	.	.	.
[8c#	-noon	.	.	.	.	.	C	.	.
8c#]	_	.	.	.	.	.	.	.	.
8B	with	.	.	.	.	.	.	.	.
8c#	Ce-	.	.	.	.	.	.	.	.
8d#	-ce	.	.	.	.	.	.	.	.
=24	=24	=24	=24	=24	=24	=24	=24	=24	=24
8c#	_	1r	.	1BM	.	voice	.	54.521	B:maj
8B	lia	.	.	.	.	.	.	.	.
8r	.	.	.	.	.	.	.	.	.
8B	u-	.	.	.	.	.	.	.	.
8e	-up	.	.	.	.	.	.	.	.
4d#	in	.	.	.	.	.	.	.	.
[8c#	my	.	.	.	.	.	.	.	.
=25	=25	=25	=25	=25	=25	=25	=25	=25	=25
8c#]	_	2r	.	2F#M	.	voice	.	56.831	F#:maj
4A#	bed-	.	.	.	.	.	.	.	.
[8B	-room	.	.	.	.	.	C	.	.
4B]	_	8r	.	2BM	.	voice	.	57.986	B:maj
.	.	8f#	Up	.	.	.	.	.	.
4r	.	8f#	in	.	.	.	.	.	.
.	.	[8f#	my	.	.	.	.	.	.
=26	=26	=26	=26	=26	=26	=26	=26	=26	=26
8r	.	8f#]	_	1BM	newline	voice	.	59.142	B:maj
8B	I	4f#	bed	.	.	.	.	.	.
8c#	got	.	.	.	.	.	.	.	.
.	.	8c#q	_	.	.	.	.	.	.
[8d#	up	[8d#	room	.	.	.	.	.	.
8d#]	_	4.d#]	_	.	.	.	.	.	.
4B	to	.	.	.	.	.	.	.	.
[8e	wash	16c#	(vocalizing)	.	.	.	.	.	.
.	.	[16B	_	.	.	.	.	.	.
=27	=27	=27	=27	=27	=27	=27	=27	=27	=27
8e]	_	4B]	_	1BM	.	voice	.	61.463	B:maj
4d#	my	.	.	.	.	.	.	.	.
.	.	4r	.	.	.	.	.	.	.
[8c#	face	.	.	.	.	.	A	.	.
8c#]	_	2r	.	.	.	.	.	.	.
8r	.	.	.	.	.	.	.	.	.
8B	when	.	.	.	.	.	.	.	.
8c#	I	.	.	.	.	.	.	.	.
=28	=28	=28	=28	=28	=28	=28	=28	=28	=28
8d#	come	1r	.	1BM	.	voice	.	63.785	B:maj
8e	back	.	.	.	.	.	.	.	.
8d#	to	.	.	.	.	.	.	.	.
[8d#	bed	.	.	.	.	.	.	.	.
8d#]	_	.	.	.	.	.	.	.	.
8c#	some-	.	.	.	.	.	.	.	.
8B	-one's	.	.	.	.	.	.	.	.
[8c#	ta	.	.	.	.	.	(A	.	.
=29	=29	=29	=29	=29	=29	=29	=29	=29	=29
8c#]	_	1r	.	2F#M	.	voice	.	66.106	F#:maj
8d#	ken	.	.	.	.	.	a)	.	.
8c#	my	.	.	.	.	.	.	.	.
[8B	place	.	.	.	.	.	A	.	.
4B]	_	.	.	2BM	.	voice	.	67.267	B:maj
4r	.	.	.	.	.	.	.	.	.
=30	=30	=30	=30	=30	=30	=30	=30	=30	=30
*>Letter>B	*>Letter>B	*>Letter>B	*>Letter>B	*>Letter>B	*>Letter>B	*>Letter>B	*>Letter>B	*>Letter>B	*>Letter>B
*>Label>Chorus	*>Label>Chorus	*>Label>Chorus	*>Label>Chorus	*>Label>Chorus	*>Label>Chorus	*>Label>Chorus	*>Label>Chorus	*>Label>Chorus	*>Label>Chorus
[4f#	Ce-	[4B [4d#	Ce-	1BM	newline	voice	.	68.428	B:maj
16f#]	_	16B] 16d#]	_	.	.	.	.	.	.
16e	_	16G# 16c#	_	.	.	.	.	.	.
8d#	_	8F# 8B	_	.	.	.	.	.	.
4d#	-lia	4F# 4B	-lia	.	.	.	.	.	.
8r	.	8r	.	.	.	.	.	.	.
8f#	you're	8B 8d#	you're	.	.	.	.	.	.
=31	=31	=31	=31	=31	=31	=31	=31	=31	=31
8g#	brea-	8c# 8e	brea-	2EM	.	voice	(A	70.756	E:maj
8f#	-king	8B 8d#	-king	.	.	.	a)	.	.
8eq	_	8A#q 8c#q	_	.	.	.	.	.	.
8e	my	8A# 8c#	my	.	.	.	.	.	.
[8f#	heart	[8B [8d#	heart	.	.	.	.	.	.
8f#]	_	8B] 8d#]	_	2BM	.	voice	.	71.919	B:maj
4r	.	4r	.	.	.	.	.	.	.
8f#	You're	8B 8d#	You're	.	.	.	.	.	.
=32	=32	=32	=32	=32	=32	=32	=32	=32	=32
8g#	sha-	8c# 8e	sha-	2EM	.	voice	(A	73.083	E:maj
8f#	-king	8B 8d#	-king	.	.	.	a)	.	.
8e	my	8A# 8c#	my	.	.	.	.	.	.
[8f#	con	[8B [8d#	con	.	.	.	.	.	.
8f#]	_	8B] 8d#]	_	2BM	.	voice	.	74.247	B:maj
8e	fi-	8A# 8c#	fi-	.	.	.	.	.	.
8d#	-dence	8G# 8B	-dence	.	.	.	.	.	.
16eQ	_	16G#Q 16BQ	_	.	.	.	.	.	.
[8f#	dai	[8A# [8c#	dai	.	.	.	(A	.	.
=33	=33	=33	=33	=33	=33	=33	=33	=33	=33
8f#]	_	8A#] 8c#]	_	1F#M	.	voice	.	75.411	F#:maj
16c#	ly	16A#	ly	.	.	.	a)	.	.
16B	_	16G#	_	.	.	.	.	.	.
[4A#	_	[4F#	_	.	.	.	.	.	.
8A#]	_	8F#]	_	.	.	.	.	.	.
8r	.	8r	.	.	.	.	.	.	.
8d#	Oh,	8B	Oh,	.	.	.	.	.	.
8f#	Ce-	8d#	Ce-	.	.	.	.	.	.
=34	=34	=34	=34	=34	=34	=34	=34	=34	=34
8f#	-ce	8B 8d#	-ce	2EM	newline	voice	.	77.739	E:maj
4g#	_	4c# 4e	_	.	.	.	.	.	.
8f#	_	8B 8d#	_	.	.	.	.	.	.
8.f#	lia	8.B 8.d#	lia	2BM	.	voice	.	78.68	B:maj
16r	.	16r	.	.	.	.	.	.	.
8r	.	8r	.	.	.	.	.	.	.
8d#	I'm	8G# 8B	I'm	.	.	.	.	.	.
=35	=35	=35	=35	=35	=35	=35	=35	=35	=35
8e	down	8A# 8c#	down	2EM	.	voice	.	79.62	E:maj
8d#	on	8G# 8B	on	.	.	.	.	.	.
8c#	my	8F# 8A#	my	.	.	.	.	.	.
[8d#	knees	[8B	knees	.	.	.	B	.	.
4d#]	_	4B]	_	2BM	.	voice	.	80.561	B:maj
8r	.	8r	.	.	.	.	.	.	.
8d#	I'm	8B	I'm	.	.	.	.	.	.
=36	=36	=36	=36	=36	=36	=36	=36	=36	=36
8e	beg-	8c#	beg-	2EM	.	voice	.	81.502	E:maj
8d#	-ging	8B	-ging	.	.	.	.	.	.
8c#	you,	8A#	you,	.	.	.	.	.	.
[8d#	please,	[8B	please,	.	.	.	B	.	.
8d#]	_	8B]	_	2BM	.	voice	.	82.442	B:maj
8c#	to	8A#	to	.	.	.	.	.	.
8B	come	8G#	come	.	.	.	.	.	.
[8A#	home	[8F#	home	.	.	.	.	.	.
=37	=37	=37	=37	=37	=37	=37	=37	=37	=37
4A#]	_	4F#]	_	1F#M	.	voice	.	83.383	F#:maj
4r	.	4r	.	.	.	.	.	.	.
8F#	Come	2r	.	.	.	.	.	.	.
8G#	on	.	.	.	.	.	.	.	.
[4B	home	.	.	.	.	.	.	.	.
=38	=38	=38	=38	=38	=38	=38	=38	=38	=38
4B]	_	1r	.	1BM	.	voice	.	85.264	B:maj
4r	.	.	.	.	.	.	.	.	.
4r	.	.	.	.	.	.	.	.	.
8c#	Bo	.	.	.	.	.	.	.	.
8d#	bo	.	.	.	.	.	.	.	.
=39	=39	=39	=39	=39	=39	=39	=39	=39	=39
*>Letter>A2	*>Letter>A2	*>Letter>A2	*>Letter>A2	*>Letter>A2	*>Letter>A2	*>Letter>A2	*>Letter>A2	*>Letter>A2	*>Letter>A2
*>Label>Interlude	*>Label>Interlude	*>Label>Interlude	*>Label>Interlude	*>Label>Interlude	*>Label>Interlude	*>Label>Interlude	*>Label>Interlude	*>Label>Interlude	*>Label>Interlude
4e	bo	2r	.	1N	newline	voice	.	87.145	N.C.
8d#	bo	.	.	.	.	.	.	.	.
8c#	_	.	.	.	.	.	.	.	.
4B	bo,	4r	.	.	.	.	.	.	.
8e	bo	8c#	bo	.	.	.	.	.	.
8f#	bo	8d#	bo	.	.	.	.	.	.
=40	=40	=40	=40	=40	=40	=40	=40	=40	=40
4g#	bo	4e	bo	1N	.	voice	.	89.482	N.C.
4f#	bo	4d#	bo	.	.	.	.	.	.
8e	bo	8c#	bo	.	.	.	.	.	.
4d#	bo	4B	bo	.	.	.	.	.	.
[8f#	bo	[8c#	bo	.	.	.	.	.	.
=41	=41	=41	=41	=41	=41	=41	=41	=41	=41
8f#]	_	8c#]	_	1N	.	voice	.	91.818	N.C.
16c#	bo	16A#	bo	.	.	.	.	.	.
16B	_	16G#	_	.	.	.	.	.	.
[4A#	_	[4F#	_	.	.	.	.	.	.
8A#]	_	8F#]	_	.	.	.	.	.	.
8r	.	8r	.	.	.	.	.	.	.
4r	.	8r	.	.	.	.	.	.	.
.	.	8r	.	.	.	.	.	.	.
=42	=42	=42	=42	=42	=42	=42	=42	=42	=42
1r	.	1r	.	1F#M	.	voice	.	94.155	F#:maj
=43	=43	=43	=43	=43	=43	=43	=43	=43	=43
*>Letter>B	*>Letter>B	*>Letter>B	*>Letter>B	*>Letter>B	*>Letter>B	*>Letter>B	*>Letter>B	*>Letter>B	*>Letter>B
*>Label>Solo	*>Label>Solo	*>Label>Solo	*>Label>Solo	*>Label>Solo	*>Label>Solo	*>Label>Solo	*>Label>Solo	*>Label>Solo	*>Label>Solo
1r	.	1r	.	1BM	newline	guitar	.	96.491	B:maj
=44	=44	=44	=44	=44	=44	=44	=44	=44	=44
1r	.	1r	.	2EM	.	guitar	.	98.832	E:maj
.	.	.	.	2BM	.	guitar	.	100.002	B:maj
=45	=45	=45	=45	=45	=45	=45	=45	=45	=45
8r	.	1r	.	2EM	.	guitar	.	101.172	E:maj
16A#	Pick	.	.	.	.	.	.	.	.
16c#	it	.	.	.	.	.	.	.	.
8d#	up,	.	.	.	.	.	.	.	.
16B	pick	.	.	.	.	.	.	.	.
16d#	it	.	.	.	.	.	.	.	.
8e	up	.	.	2BM	.	guitar	.	102.342	B:maj
8r	.	.	.	.	.	.	.	.	.
4r	.	.	.	.	.	.	.	.	.
=46	=46	=46	=46	=46	=46	=46	=46	=46	=46
1r	.	1r	.	1F#M	.	guitar	.	103.512	F#:maj
=47	=47	=47	=47	=47	=47	=47	=47	=47	=47
1r	.	1r	.	2EM	newline	guitar	.	105.852	E:maj
.	.	.	.	2BM	.	guitar	.	107.013	B:maj
=48	=48	=48	=48	=48	=48	=48	=48	=48	=48
1r	.	1r	.	2EM	.	guitar	.	108.174	E:maj
.	.	.	.	2BM	.	guitar	.	109.335	B:maj
=49	=49	=49	=49	=49	=49	=49	=49	=49	=49
8r	.	1r	.	2EM	.	guitar	.	110.495	E:maj
16e	Pick	.	.	.	.	.	.	.	.
16e	it	.	.	.	.	.	.	.	.
8d#	up,	.	.	.	.	.	.	.	.
16f#	pick	.	.	.	.	.	.	.	.
16f#	it	.	.	.	.	.	.	.	.
8e	up	.	.	2BM	.	guitar	.	111.656	B:maj
8r	.	.	.	.	.	.	.	.	.
8B 8d#	Ju-	.	.	.	.	.	.	.	.
8d# 8f#	-bi-	.	.	.	.	.	.	.	.
=50	=50	=50	=50	=50	=50	=50	=50	=50	=50
8f#	-la	8B 8d#	la	1F#M	.	guitar	.	112.817	F#:maj
4g#	_	4c# 4e	_	.	.	.	.	.	.
8f#	_	8B 8d#	_	.	.	.	.	.	.
8f#	tion	8B 8d#	tion	.	.	.	.	.	.
8r	.	8r	.	.	.	.	.	.	.
8r	.	8r	.	.	.	.	.	.	.
8d#	She	8G# 8B	She	.	.	.	.	.	.
=51	=51	=51	=51	=51	=51	=51	=51	=51	=51
*>Letter>B2	*>Letter>B2	*>Letter>B2	*>Letter>B2	*>Letter>B2	*>Letter>B2	*>Letter>B2	*>Letter>B2	*>Letter>B2	*>Letter>B2
*>Label>Chorus	*>Label>Chorus	*>Label>Chorus	*>Label>Chorus	*>Label>Chorus	*>Label>Chorus	*>Label>Chorus	*>Label>Chorus	*>Label>Chorus	*>Label>Chorus
8g#	loves	8c# 8e	loves	1BM	newline	voice	.	115.138	B:maj
8f#	me	8B 8d#	me	.	.	.	.	.	.
8e	a-	8A# 8c#	a-	.	.	.	.	.	.
[8f#	-gain	[8B [8d#	-gain	.	.	.	.	.	.
8f#]	_	8B] 8d#]	_	.	.	.	.	.	.
4r	.	4r	.	.	.	.	.	.	.
8f#	I	8B 8d#	I	.	.	.	.	.	.
=52	=52	=52	=52	=52	=52	=52	=52	=52	=52
8g#	fall	8c# 8e	fall	2EM	.	voice	.	117.451	E:maj
8f#	on	8B 8d#	on	.	.	.	.	.	.
8e	the	8A# 8c#	the	.	.	.	.	.	.
[8f#	floor	[8B [8d#	floor	.	.	.	.	.	.
8f#]	_	8B] 8d#]	_	2BM	.	voice	.	118.607	B:maj
8e	and	8A# 8c#	and	.	.	.	.	.	.
8d#	I'm	8G# 8B	I'm	.	.	.	.	.	.
16eQ	_	16G#Q 16BQ	_	.	.	.	.	.	.
[8f#	lau	[8A# [8c#	lau	.	.	.	.	.	.
=53	=53	=53	=53	=53	=53	=53	=53	=53	=53
8f#]	_	8A#] 8c#]	_	2EM	.	voice	.	119.763	E:maj
16c#	ghing	16A#	ghing	.	.	.	.	.	.
16B	_	16G#	_	.	.	.	.	.	.
[4A#	_	[4F#	_	.	.	.	.	.	.
8A#]	_	8F#]	_	2BM	.	voice	.	120.919	B:maj
8r	.	8r	.	.	.	.	.	.	.
8d#	Ju-	8B	Ju-	.	.	.	.	.	.
8f#	-bi-	8d#	-bi-	.	.	.	.	.	.
=54	=54	=54	=54	=54	=54	=54	=54	=54	=54
8f#	-la	8B 8d#	-la	1F#M	.	voice	.	122.075	F#:maj
4g#	_	4c# 4e	_	.	.	.	.	.	.
8f#	_	8B 8d#	_	.	.	.	.	.	.
8f#	tion	8B 8d#	tion	.	.	.	.	.	.
8r	.	8r	.	.	.	.	.	.	.
8r	.	8r	.	.	.	.	.	.	.
8d#	She	8G# 8B	She	.	.	.	.	.	.
=55	=55	=55	=55	=55	=55	=55	=55	=55	=55
8g#	loves	8c# 8e	loves	2EM	newline	voice	.	124.388	E:maj
8f#	me	8B 8d#	me	.	.	.	.	.	.
8e	a-	8A# 8c#	a-	.	.	.	.	.	.
[8f#	-gain	[8B [8d#	-gain	.	.	.	.	.	.
8f#]	_	8B] 8d#]	_	2BM	.	voice	.	125.54	B:maj
4r	.	4r	.	.	.	.	.	.	.
8f#	I	8B 8d#	I	.	.	.	.	.	.
=56	=56	=56	=56	=56	=56	=56	=56	=56	=56
8g#	fall	8c# 8e	fall	2EM	.	voice	.	126.693	E:maj
8f#	on	8B 8d#	on	.	.	.	.	.	.
8e	the	8A# 8c#	the	.	.	.	.	.	.
[8f#	floor	[8B [8d#	floor	.	.	.	.	.	.
8f#]	_	8B] 8d#]	_	2BM	.	voice	.	127.845	B:maj
8e	and	8A# 8c#	and	.	.	.	.	.	.
8d#	I'm	8G# 8B	I'm	.	.	.	.	.	.
16eQ	_	16G#Q 16BQ	_	.	.	.	.	.	.
[8f#	lau	[8A# [8c#	lau	.	.	.	.	.	.
=57	=57	=57	=57	=57	=57	=57	=57	=57	=57
8f#]	_	8A#] 8c#]	_	2EM	.	voice	.	128.998	E:maj
16c#	ghing	16A#	ghing	.	.	.	.	.	.
16B	_	16G#	_	.	.	.	.	.	.
[4A#	_	[4F#	_	.	.	.	.	.	.
8A#]	_	8F#]	_	2BM	.	voice	.	130.151	B:maj
8r	.	8r	.	.	.	.	.	.	.
8d#	Oh	8d#	Oh	.	.	.	.	.	.
8f#	_	8d#	_	.	.	.	.	.	.
=58	=58	=58	=58	=58	=58	=58	=58	=58	=58
.	.	8d#q	_	.	.	.	.	.	.
8f#	_	4.e	_	1F#M	.	voice	.	131.303	F#:maj
4g#	_	.	.	.	.	.	.	.	.
8f#	_	8d#	_	.	.	.	.	.	.
8f#	ho	8d#	ho	.	.	.	.	.	.
8r	.	8r	.	.	.	.	.	.	.
8r	.	8r	.	.	.	.	.	.	.
8f#	Oh	8d#	Oh	.	.	.	.	.	.
=59	=59	=59	=59	=59	=59	=59	=59	=59	=59
8g#	_	8e	_	2EM	newline	voice	.	133.609	E:maj
8f#	_	8d#	_	.	.	.	.	.	.
8e	_	8c#	_	.	.	.	.	.	.
[8f#	ho	[8d#	ho	.	.	.	.	.	.
8f#]	_	8d#]	_	2BM	.	voice	.	134.759	B:maj
4r	.	4r	.	.	.	.	.	.	.
8f#	Oh	8d#	Oh	.	.	.	.	.	.
=60	=60	=60	=60	=60	=60	=60	=60	=60	=60
8g#	_	8e	_	2EM	.	voice	.	135.909	E:maj
8f#	_	8d#	_	.	.	.	.	.	.
8e	_	8c#	_	.	.	.	.	.	.
8f#	ho	8d#	ho	.	.	.	.	.	.
8r	.	8r	.	2BM	.	voice	.	137.059	B:maj
8e	oh,	8c#	oh,	.	.	.	.	.	.
8d#	_	8B	_	.	.	.	.	.	.
16eQ	_	16BQ	_	.	.	.	.	.	.
[8f#	_	[8c#	_	.	.	.	.	.	.
=61	=61	=61	=61	=61	=61	=61	=61	=61	=61
8f#]	_	8c#]	_	2EM	.	voice	.	138.21	E:maj
16c#	oh	16A#	oh	.	.	.	.	.	.
16B	_	16G#	_	.	.	.	.	.	.
[4A#	_	[4F#	_	.	.	.	.	.	.
8A#]	_	8F#]	_	2BM	.	voice	.	139.36	B:maj
8r	.	8r	.	.	.	.	.	.	.
8d#	Oh	8d#	Oh	.	.	.	.	.	.
8f#	_	8d#	_	.	.	.	.	.	.
=62	=62	=62	=62	=62	=62	=62	=62	=62	=62
.	.	8d#q	_	.	.	.	.	.	.
8f#	_	4.e	_	1F#M	.	voice	.	140.51	F#:maj
4g#	_	.	.	.	.	.	.	.	.
8f#	_	8d#	_	.	.	.	.	.	.
8f#	ho	8d#	ho	.	.	.	.	.	.
8r	.	8r	.	.	.	.	.	.	.
8r	.	8r	.	.	.	.	.	.	.
8f#	Oh	8d#	Oh	.	.	.	.	.	.
=63	=63	=63	=63	=63	=63	=63	=63	=63	=63
8g#	_	8e	_	2EM	newline	voice	.	142.81	E:maj
8f#	_	8d#	_	.	.	.	.	.	.
8e	_	8c#	_	.	.	.	.	.	.
[8f#	ho	[8d#	ho	.	.	.	.	.	.
8f#]	_	8d#]	_	2BM	.	voice	.	143.962	B:maj
4r	.	4r	.	.	.	.	.	.	.
8f#	Oh	8d#	Oh	.	.	.	.	.	.
=64	=64	=64	=64	=64	=64	=64	=64	=64	=64
8g#	_	8e	_	2EM	.	voice	.	145.113	E:maj
8f#	_	8d#	_	.	.	.	.	.	.
8e	_	8c#	_	.	.	.	.	.	.
8f#	ho	8d#	ho	.	.	.	.	.	.
8r	.	8r	.	2BM	.	voice	.	146.264	B:maj
8e	oh,	8c#	oh,	.	.	.	.	.	.
8d#	_	8B	_	.	.	.	.	.	.
16eQ	_	16BQ	_	.	.	.	.	.	.
[8f#	_	[8c#	_	.	.	.	.	.	.
=65	=65	=65	=65	=65	=65	=65	=65	=65	=65
8f#]	_	8c#]	_	2EM	.	voice	.	147.416	E:maj
16c#	oh	16A#	oh	.	.	.	.	.	.
16B	_	16G#	_	.	.	.	.	.	.
[4A#	_	[4F#	_	.	.	.	.	.	.
8A#]	_	8F#]	_	2BM	.	voice	.	148.567	B:maj
8r	.	8r	.	.	.	.	.	.	.
8d#	Oh	8d#	Oh	.	.	.	.	.	.
8f#	_	8d#	_	.	.	.	.	.	.
=66	=66	=66	=66	=66	=66	=66	=66	=66	=66
.	.	8d#q	_	.	.	.	.	.	.
8f#	_	4.e	_	1F#M	.	voice	.	149.719	F#:maj
4g#	_	.	.	.	.	.	.	.	.
8f#	_	8d#	_	.	.	.	.	.	.
8f#	ho	8d#	ho	.	.	.	.	.	.
8r	.	8r	.	.	.	.	.	.	.
8r	.	8r	.	.	.	.	.	.	.
8f#	Oh	8d#	Oh	.	.	.	.	.	.
=67	=67	=67	=67	=67	=67	=67	=67	=67	=67
*>Label>>Fadeout	*>Label>>Fadeout	*>Label>>Fadeout	*>Label>>Fadeout	*>Label>>Fadeout	*>Label>>Fadeout	*>Label>>Fadeout	*>Label>>Fadeout	*>Label>>Fadeout	*>Label>>Fadeout
8g#	_	8e	_	2EM	newline	voice	.	152.021	E:maj
8f#	_	8d#	_	.	.	.	.	.	.
8e	_	8c#	_	.	.	.	.	.	.
[8f#	ho	[8d#	ho	.	.	.	.	.	.
8f#]	_	8d#]	_	2BM	.	voice	.	153.166	B:maj
4r	.	4r	.	.	.	.	.	.	.
8f#	Oh	8d#	Oh	.	.	.	.	.	.
=68	=68	=68	=68	=68	=68	=68	=68	=68	=68
8g#	_	8e	_	2EM	.	voice	.	154.311	E:maj
8f#	_	8d#	_	.	.	.	.	.	.
8e	_	8c#	_	.	.	.	.	.	.
8f#	ho	8d#	ho	.	.	.	.	.	.
8r	.	8r	.	2BM	.	voice	.	155.456	B:maj
8e	oh,	8c#	oh,	.	.	.	.	.	.
8d#	_	8B	_	.	.	.	.	.	.
16eQ	_	16BQ	_	.	.	.	.	.	.
[8f#	_	[8c#	_	.	.	.	.	.	.
=69	=69	=69	=69	=69	=69	=69	=69	=69	=69
8f#]	_	8c#]	_	2EM	.	voice	.	156.601	E:maj
16c#	oh	16A#	oh	.	.	.	.	.	.
16B	_	16G#	_	.	.	.	.	.	.
[4A#	_	[4F#	_	.	.	.	.	.	.
8A#]	_	8F#]	_	2BM	.	voice	.	157.745	B:maj
8r	.	8r	.	.	.	.	.	.	.
8d#	Oh	8d#	Oh	.	.	.	.	.	.
8f#	_	8d#	_	.	.	.	.	.	.
=70	=70	=70	=70	=70	=70	=70	=70	=70	=70
.	.	8d#q	_	.	.	.	.	.	.
8f#	_	4.e	_	1F#M	.	voice	.	158.89	F#:maj
4g#	_	.	.	.	.	.	.	.	.
8f#	_	8d#	_	.	.	.	.	.	.
8f#	ho	8d#	ho	.	.	.	.	.	.
8r	.	8r	.	.	.	.	.	.	.
8r	.	8r	.	.	.	.	.	.	.
8f#	Oh	8d#	Oh	.	.	.	.	.	.
=71	=71	=71	=71	=71	=71	=71	=71	=71	=71
8g#	_	8e	_	2EM	newline	voice	.	161.18	E:maj
8f#	_	8d#	_	.	.	.	.	.	.
8e	_	8c#	_	.	.	.	.	.	.
[8f#	ho	[8d#	ho	.	.	.	.	.	.
8f#]	_	8d#]	_	2BM	.	voice	.	162.328	B:maj
4r	.	4r	.	.	.	.	.	.	.
8f#	Oh	8d#	Oh	.	.	.	.	.	.
=72	=72	=72	=72	=72	=72	=72	=72	=72	=72
8g#	_	8e	_	2EM	.	voice	.	163.475	E:maj
8f#	_	8d#	_	.	.	.	.	.	.
8e	_	8c#	_	.	.	.	.	.	.
8f#	ho	8d#	ho	.	.	.	.	.	.
8r	.	8r	.	2BM	.	voice	.	164.623	B:maj
8e	oh,	8c#	oh,	.	.	.	.	.	.
8d#	_	8B	_	.	.	.	.	.	.
16eQ	_	16BQ	_	.	.	.	.	.	.
[8f#	_	[8c#	_	.	.	.	.	.	.
=73	=73	=73	=73	=73	=73	=73	=73	=73	=73
8f#]	_	8c#]	_	2EM	.	voice	.	165.771	E:maj
16c#	oh	16A#	oh	.	.	.	.	.	.
16B	_	16G#	_	.	.	.	.	.	.
[4A#	_	[4F#	_	.	.	.	.	.	.
8A#]	_	8F#]	_	2BM	.	voice	.	166.918	B:maj
8r	.	8r	.	.	.	.	.	.	.
8d#	Oh	8d#	Oh	.	.	.	.	.	.
8f#	_	8d#	_	.	.	.	.	.	.
=74	=74	=74	=74	=74	=74	=74	=74	=74	=74
.	.	8d#q	_	.	.	.	.	.	.
8f#	_	4.e	_	1F#M	.	voice	.	168.066	F#:maj
4g#	_	.	.	.	.	.	.	.	.
8f#	_	8d#	_	.	.	.	.	.	.
8f#	ho	8d#	ho	.	.	.	.	.	.
8r	.	8r	.	.	.	.	.	.	.
8r	.	8r	.	.	.	.	.	.	.
8f#	Oh	8d#	Oh	.	.	.	.	.	.
=75	=75	=75	=75	=75	=75	=75	=75	=75	=75
8g#	_	8e	_	2EM	newline	voice	.	170.361	E:maj
8f#	_	8d#	_	.	.	.	.	.	.
8e	_	8c#	_	.	.	.	.	.	.
[8f#	ho	[8d#	ho	.	.	.	.	.	.
8f#]	_	8d#]	_	2BM	.	voice	.	170.837	B:maj
4r	.	4r	.	.	.	.	.	.	.
8f#	Oh	8d#	Oh	.	.	.	.	.	.
=76	=76	=76	=76	=76	=76	=76	=76	=76	=76
1r	.	1r	.	2EM	.	voice	.	171.313	E:maj
.	.	.	.	2BM	.	voice	.	171.788	B:maj
=77	=77	=77	=77	=77	=77	=77	=77	=77	=77
1r	.	1r	.	2EM	.	voice	.	172.264	E:maj
.	.	.	.	2BM	.	voice	.	172.74	B:maj
=78	=78	=78	=78	=78	=78	=78	=78	=78	=78
1r	.	1r	.	1F#M	.	voice	.	173.216	F#:maj
r;	.	r;	.	1r;	.	r	.	174.167	N.C.
r;	.	r;	.	1r;	.	r	.	176.777	N.C.
*-	*-	*-	*-	*-	*-	*-	*-	*-	*-
!!!BillboardChartDate: 1970/05/30
!!!BillboardPeak: 4
!!!BillboardWeeksOnChart: 13
!!!COC: Simon & Garfunkel
!!!ENC: Nathaniel Condit-Schultz
!!!EST: Awating manual error checking and editing.
!!!OTL: Cecilia
!!!RDF**chordsym: original McGill chord annotation + (implied pitch class set, with bass pitch in first position)
!!!RDF**harmony: **recip + pitch class of root + harmonic quality
!!!RDF**leadinstrument: original McGill primary instrumentation annotation
!!!RDF**phrase: newline = linebreak in original McGill transcription
!!!RDF**timestamp: McGill audio timestamp in seconds
!!!RDT: 2017/01/12/
!!!SampleActualRank: 4
!!!SampleID#: 0560
!!!SampleTargetRank: 4
